X:1
T:Matlock, 88.88.88
T:Matlock, 88.88.88
T:Michael Wise, 1684
T:Public Domain Courtesy of the Cyber Hymnal™
C:Michael Wise, 1684
Z:Public Domain
Z:Courtesy of the Cyber Hymnal™
%%score ( 1 2 ) ( 3 4 )
L:1/8
Q:1/4=105
M:4/4
K:D
V:1 treble 
V:2 treble 
V:3 bass 
V:4 bass 
V:1
 [DB]2 | [DB]2 (AG) [DF]2 [B,F]2 | [B,E]2 [^A,E]2 [B,D]2 [DF]2 | [CF]2 [B,^G]2 [A,A]2 [A,A]2 | %4
 [D^G]2 G2 [A,F]2 [A,A]2 | [DA]2 A2 [DB]2 [DA]2 | G2 [DF]2 [CE]2 [DF]2 | [B,G]2 [CE]2 [DA]2 D2 | %8
 [B,D]2 [A,C]2 !fermata![A,D]2 [DF]2 x | [DF]2 [DG]2 [DA]2 [Fd]2 | [Ec]2 [DB]2 [C^A]2 [Fc]2 | %11
 [Dd]2 [EB]2 [F^A]2 B2 | B2 [E^A]2 [DB]2 |] %13
V:2
 x2 | x2 E2 x4 | x8 | x8 | x2 (CB,) x4 | x2 (FE) x4 | (DE) x6 | x6 D2 | x9 | x8 | x8 | x6 (ED) | %12
 (CD) x4 |] %13
V:3
 [B,,F,]2 | [B,,F,]2 [C,A,]2 [D,A,]2 [D,F,]2 | [C,G,]2 [F,,F,]2 [B,,F,]2 [B,,F,]2 | %3
 [A,,F,]2 [^G,,^E,]2 [F,,F,]2 [D,F,]2 | [B,,F,]2 [C,^E,]2 [F,,F,]2 [D,F,]2 | %5
 [F,A,]2 (DC) [G,,B,]2 [A,,F,]2 | ([B,,B,][C,A,]) [D,A,]2 [A,,A,]2 [F,A,]2 | %7
 [E,G,]2 [G,A,]2 [F,A,]2 ([B,,G,][A,,F,]) | E,3 z E, !fermata![D,F,]2 [D,A,]2 | %9
 B,2 [G,B,]2 [F,A,]2 [D,A,]2 | [E,G,]2 [B,,F,]2 F,2 [^A,,F,]2 | [B,,F,]2 [G,B,]2 [F,C]2 B,2 | %12
 [E,G,]2 F,2 [B,,F,]2 |] %13
V:4
 x2 | x8 | x8 | x8 | x8 | x2 D,2 x4 | x8 | x8 | G,,2 A,,2 x5 | B,2 x6 | x4 F,2 x2 | x6 (G,F,) | %12
 x2 F,2 x2 |] %13

